X: 27
T: The Lark In The Morning
R: jig
M: 6/8
L: 1/8
K: Dmaj
%%score (1 2)
[V:1] |: "D" AFA AFA | "G" BGB BdB     | "D" AFA Ade      | "G" fed BdB |
[V:2] |: x6 | x6 | x3 AFA | x6
%%score 1
   "D" AFA AFA | "G" BGB BdB     | "D" def afe      | "G" fdB BAB :|
|: "D" def a2a | "G" baf "A" afe | "D" def afe      | "G" fdB BdB |
   "D" def a2a | "G" baf "A" a2f | "G" g2e "Bm" fed | "A" edB BAB :|
|: "D" d2f fef | fef fef         | "D" d2f fef      | "A" edB BdB |
   "D" d2f fef | fef def         | "G" g2e "D" fed  | "A" edB BAB :|
|: "D" Add fdd | ede fdB         | "D" Add fdd          | "A" efe edB |
   "D" Add fdd | "A" edB def     | "G" g2e fed      | "A" edB BAB :|


